X: 1
T: Men From Ulster, The
M: 4/4
L: 1/8
R: hornpipe
K: Gmaj
|: D>B, | G,>B,D>G B>GD>B, | C>EA>B c>BA>c | (3Bcd g>d e2 (3cAG | (3FGA (3GFE D2 (3CB,A, | 
G,>B,D>G B>GD>B, | C>EA>B c2 (3def | g>fg>e (3ded (3cBA | G>Bd>D G2 :| 
|: (3ABc | d>gf>g e>gf>g | b>g (3agf g2 (3edB | (3cde (3ABc (3Bcd G2 | (3AGF (3GFE D2 B>c | 
d>g (3gfg e2 (3gfg | b>ga>f g>ed>B | c>de>f g2 (3gfe | d>B (3cBA G2 :|
